X: 47
T: Munster Buttermilk
M: 6/8
Z: Mary Lou Knack?
R: jig
K: G
|:\
"G"gfg "C"age | "G"d2B BAB | d2B BAB | dBG G2d |\
"G"gfg "C"age | "G"d2B BAB | dBG GAB | "D"A3 "G"G2 :|
|:\
"G"d2e "C"g2a | "G"b2b bag | "D"a2a agf | "G"gfg "C"age |\
"G"d2e "C"g2a | "G"b2b bag | "C"age "G"deg | "D"a3 "G"g3 :|
